front/assets/images/trois-mains-croisees.svg

<svg width="80" height="80" viewBox="0 0 80 80" fill="none" xmlns="http://www.w3.org/2000/svg">
<path fill-rule="evenodd" clip-rule="evenodd" d="M56 77C55.4486 77 55 76.5514 55 76C55 75.4486 55.4486 75 56 75C56.5514 75 57 75.4486 57 76C57 76.5514 56.5514 77 56 77Z" fill="#FFF7DB"/>
<path fill-rule="evenodd" clip-rule="evenodd" d="M8 65C7.4486 65 7 64.5514 7 64C7 63.4486 7.4486 63 8 63C8.5514 63 9 63.4486 9 64C9 64.5514 8.5514 65 8 65Z" fill="#FFF7DB"/>
<path fill-rule="evenodd" clip-rule="evenodd" d="M76 58C75.4486 58 75 57.5514 75 57C75 56.4486 75.4486 56 76 56C76.5514 56 77 56.4486 77 57C77 57.5514 76.5514 58 76 58Z" fill="#FFF7DB"/>
<path fill-rule="evenodd" clip-rule="evenodd" d="M65 10C64.4486 10 64 9.5514 64 9C64 8.44855 64.4486 8 65 8C65.5514 8 66 8.44855 66 9C66 9.5514 65.5514 10 65 10Z" fill="#FFF7DB"/>
<path fill-rule="evenodd" clip-rule="evenodd" d="M24 4C23.4486 4 23 3.5514 23 3C23 2.44855 23.4486 2 24 2C24.5514 2 25 2.44855 25 3C25 3.5514 24.5514 4 24 4Z" fill="#FFF7DB"/>
<path d="M37.0962 15.6808C37.5129 16.8193 37.1302 18.1563 36.3761 18.7891C36.0549 19.0587 35.7715 19.2178 35.2894 19.3644L34.9745 19.4516C34.9174 19.4661 34.8578 19.4807 34.7955 19.4955L34.3877 19.587L32.4643 19.9802L32.2227 20.0317L32.3576 20.1023L32.603 20.2354L33.0713 20.499C33.5496 20.7751 33.7135 21.3867 33.4374 21.865C33.1612 22.3433 32.5496 22.5071 32.0713 22.231L31.8578 22.1093L31.4117 21.8645L29.878 21.0623L29.1921 20.6967C29.0787 20.6354 28.9652 20.5737 28.8508 20.511L28.1465 20.1193L27.3799 19.6817C26.9016 19.4056 26.7377 18.794 27.0139 18.3157C27.29 17.8374 27.9016 17.6735 28.3799 17.9496L29.1266 18.3759C29.2448 18.4426 29.3604 18.5073 29.4743 18.5707L29.6092 18.6446C29.7104 18.5736 29.8266 18.5203 29.9544 18.4903L30.5011 18.3634L31.5451 18.1312L32.3143 17.9685L33.8959 17.6469L34.3424 17.5478L34.5642 17.4914L34.7366 17.4397C34.7617 17.4314 34.7852 17.4231 34.8073 17.4148L34.9237 17.3651L35.0149 17.3134L35.0905 17.257C35.2102 17.1566 35.3403 16.7022 35.218 16.3683C35.0123 15.8062 34.2001 15.3239 32.4881 15.1306L29.1049 14.7832L27.2402 14.5986L25.1612 14.4015L23.036 14.2143L22.077 14.1381L21.9215 14.1406L21.8053 14.1522L21.6077 14.1861L21.4576 14.2206L21.2909 14.2654L21.0056 14.3534L20.5499 14.513L19.9948 14.7255L19.3259 14.9964L18.0776 15.5233L15.806 16.5098L15.6979 16.5473L15.6247 16.5651L15.5479 16.5763C15.5347 16.5776 15.5213 16.5785 15.5075 16.5791L15.4215 16.5788L15.3265 16.5699L15.2206 16.5515L15.1014 16.5229L14.8933 16.4591L14.7319 16.4014L14.4502 16.2904L14.233 16.1988L13.7183 15.9698L12.9021 15.5898L10.5664 14.47C10.0689 14.2302 9.86007 13.6324 10.0999 13.135C10.3398 12.6375 10.9375 12.4286 11.435 12.6684L13.1878 13.5048L13.8992 13.8369L14.676 14.1902L15.1474 14.3955L15.4075 14.5009L17.4277 13.6236L18.5652 13.1418L19.1407 12.9063L19.8 12.6495L20.0887 12.5438L20.4774 12.4115L20.82 12.3084L21.0267 12.2545L21.219 12.2116L21.3992 12.1789L21.5696 12.1557L21.7328 12.1411C21.7595 12.1393 21.786 12.1379 21.8124 12.1368L22.0468 12.1348L22.2792 12.1468L23.5269 12.2485L25.7325 12.4459L28.3381 12.6968L31.8823 13.0571L32.4329 13.1145C34.997 13.3502 36.5708 14.2457 37.0962 15.6808Z" fill="#FED980"/>
<path d="M25.793 36.048C26.2526 36.2467 26.7982 36.0736 27.0546 35.6295C27.3308 35.1512 27.1669 34.5396 26.6886 34.2635L23.75 32.5669L23.6457 32.5144C23.1861 32.3157 22.6404 32.4888 22.384 32.9329C22.1078 33.4112 22.2717 34.0228 22.75 34.2989L25.6886 35.9955L25.793 36.048Z" fill="#FED980"/>
<path d="M20.4849 38.2483C20.2285 38.6924 19.6829 38.8655 19.2233 38.6668L19.1189 38.6143L14.643 36.0302C14.4918 35.9429 14.2862 35.7403 14.0424 35.4455L13.8244 35.1709C13.7866 35.1216 13.7482 35.0705 13.7091 35.0177L13.4671 34.6815L13.212 34.3082L12.9461 33.9012L12.6714 33.4637C12.625 33.3884 12.5784 33.312 12.5315 33.2345L12.248 32.7572L11.9615 32.2576L11.6741 31.7387C11.6263 31.6508 11.5785 31.5623 11.5308 31.4731L11.2464 30.9316C11.1993 30.8403 11.1524 30.7486 11.1058 30.6565L10.8294 30.0996L10.5611 29.5365L10.3032 28.9704L10.0579 28.4045C9.97844 28.2163 9.9015 28.0287 9.8274 27.8422L9.70364 27.5233L8.74642 26.7962L6.7319 25.2893L6.36725 25.0073L6.15993 24.8381L6.06997 24.7571L5.98198 24.6701L5.94969 24.628L5.87621 24.4989L5.78842 24.3329C5.60452 23.8121 5.8776 23.2409 6.39837 23.057C6.7589 22.9297 7.14363 23.0214 7.40727 23.2627L7.46909 23.3257L7.74856 23.5485L10.6848 25.7537L11.0034 26.0028L11.1679 26.141L11.2961 26.264L11.328 26.3048L11.3711 26.376L11.4895 26.5921C12.2082 28.5328 13.1715 30.4476 14.2295 32.1668L14.4007 32.4418L14.7364 32.963C14.9013 33.213 15.0607 33.4458 15.2108 33.6566L15.4576 33.9944L15.6331 34.2213L15.7207 34.3292C15.725 34.337 15.7206 34.3395 15.687 34.3224L20.1189 36.8823C20.5972 37.1584 20.7611 37.77 20.4849 38.2483Z" fill="#FED980"/>
<path d="M23 39.9999C23.5523 39.9999 24 39.5522 24 38.9999C24 38.4476 23.5523 37.9999 23 37.9999C22.4477 37.9999 22 38.4476 22 38.9999C22 39.5522 22.4477 39.9999 23 39.9999Z" fill="#FED980"/>
<path d="M54.4185 42.6614C54.1423 42.1831 54.3062 41.5715 54.7845 41.2954L54.9967 41.1713L55.4317 40.9074L57.2242 39.7727C57.3338 39.7043 57.4431 39.6366 57.5529 39.569L58.2237 39.1617L58.9455 38.735C59.0723 38.661 59.2028 38.5852 59.338 38.5071C59.8163 38.231 60.4279 38.3949 60.704 38.8732C60.9802 39.3515 60.8163 39.963 60.338 40.2392L59.5955 40.6727L59.2073 40.9052C59.2009 40.9374 59.193 40.9696 59.1833 41.0017C59.0731 41.3675 58.9656 41.7164 58.8588 42.0559L58.5386 43.0532L57.8908 44.998L57.8055 45.2731L57.7434 45.4934L57.702 45.6685L57.6957 45.7002C57.693 45.7146 57.6905 45.7286 57.6882 45.7422L57.673 45.8678L57.6722 45.9726L57.6833 46.0663C57.7104 46.2203 58.0389 46.5601 58.3891 46.6212C58.9788 46.724 59.8026 46.2618 60.826 44.8759L63.1018 41.7255L64.8926 39.2176L65.9649 37.6947L66.6987 36.6376C66.7552 36.5555 66.8106 36.4748 66.8649 36.3957C67.0247 36.1626 67.1832 35.7848 67.3371 35.2674L67.4389 34.9018L67.5393 34.4951L67.6378 34.0477L67.7343 33.5599L67.8285 33.032L67.9204 32.4644L68.0095 31.8574C68.0241 31.7529 68.0386 31.6469 68.053 31.5392L68.1377 30.8737L68.2193 30.1696C68.2236 30.1309 68.2283 30.094 68.2344 30.0582L68.2581 29.9531L68.2815 29.8838L68.3324 29.7773L68.3793 29.7023L68.4387 29.6223L68.5549 29.4896L68.6531 29.3904L68.8355 29.2215L69.1536 28.9509L69.8195 28.4222L71.1322 27.4234L72.4961 26.3995C72.9381 26.0683 73.5648 26.158 73.8961 26.5999C74.2273 27.0418 74.1376 27.6686 73.6957 27.9998L71.9054 29.354L70.9686 30.0797L70.5307 30.4287L70.1692 30.7305L70.0674 31.5639C70.0512 31.6906 70.0348 31.8153 70.0181 31.9382L69.9161 32.6529C69.5682 34.9608 69.1412 36.5239 68.5942 37.4043L68.5145 37.5265L67.8025 38.5562L66.9808 39.7283L65.5428 41.7529L63.2428 44.9487L62.5996 45.836C61.1134 47.9387 59.551 48.854 58.0455 48.5914C56.8511 48.3831 55.8846 47.3832 55.7136 46.4136C55.6335 45.9594 55.6462 45.6116 55.7964 45.0325L55.8922 44.6917L56.0169 44.2928L56.604 42.5323L56.4849 42.6077L56.0151 42.8926C55.9383 42.9381 55.8617 42.9829 55.7845 43.0275C55.3062 43.3036 54.6946 43.1397 54.4185 42.6614Z" fill="#FED980"/>
<path d="M64.3271 19.8271L61.784 20.9492L61.3001 21.1502L61.1038 21.2211C60.9239 21.2789 60.8336 21.302 60.6716 21.2849L60.5645 21.2698C58.5302 20.9256 56.398 20.8045 54.389 20.8617L54.0666 20.8725L53.45 20.9027L52.8801 20.9432C52.7896 20.9507 52.7015 20.9585 52.616 20.9667L52.2021 21.0114L51.9192 21.0499L51.783 21.0716C51.7744 21.0714 51.7746 21.0663 51.8063 21.0458L45.5 24.6856C45.0217 24.9617 44.4101 24.7978 44.134 24.3195C43.8775 23.8754 44.0005 23.3163 44.4024 23.0176L44.5 22.9535L50.8493 19.2877C51.0478 19.1732 51.4658 19.0768 52.0394 19.0039L52.4443 18.9589C52.5153 18.952 52.5882 18.9454 52.6626 18.9391L53.1288 18.9051L53.6305 18.8789L54.1636 18.8609C54.2549 18.8586 54.3472 18.8566 54.4406 18.855L55.013 18.8498L55.6062 18.8536L56.2162 18.8668L56.8386 18.8897L57.4693 18.9225L58.104 18.9658L58.7387 19.0197L59.369 19.0847C59.6823 19.12 59.9925 19.1596 60.2971 19.2037L60.6482 19.2574L60.8647 19.1671L63.6292 17.9502L63.8996 17.836L64.1105 17.7512L64.2479 17.7005L64.3078 17.6806C64.5269 17.6114 64.6173 17.5919 64.8586 17.6368C65.4015 17.738 65.7597 18.2601 65.6586 18.803C65.5575 19.346 65.0353 19.7042 64.4924 19.603C64.5598 19.6156 64.6018 19.6277 64.6302 19.6375L64.6859 19.6585C64.705 19.6638 64.7196 19.66 64.7693 19.6409L64.3271 19.8271Z" fill="#FED980"/>
<path d="M49 27.9999C49.5523 27.9999 50 27.5522 50 26.9999C50 26.4476 49.5523 25.9999 49 25.9999C48.4477 25.9999 48 26.4476 48 26.9999C48 27.5522 48.4477 27.9999 49 27.9999Z" fill="#FED980"/>
<path d="M41.9948 27.308C41.8951 25.4643 40.3685 24 38.5 24C36.567 24 35 25.567 35 27.5V29.3368C34.5453 29.1208 34.0368 29 33.5 29C31.567 29 30 30.567 30 32.5L30 47.385L29.3916 46.6707L28.1696 45.2122L27.5486 44.4827L27.1734 44.0583L26.9584 43.8263L26.7664 43.6304C26.7361 43.6005 26.7066 43.572 26.6777 43.5447L26.5122 43.3954C26.4329 43.3276 26.3582 43.2696 26.2856 43.2191L26.1426 43.1276C26.0718 43.0862 26.0016 43.0508 25.9295 43.0192L25.7821 42.9604C24.857 42.6236 23.5078 42.9607 22.7302 43.8909C21.75 45.0634 21.7615 46.8742 22.8394 49.2125L24.3292 52.5344L25.7765 55.7103L26.5424 57.3583L27.0782 58.4898L27.1486 58.629C27.4885 59.2677 28.1202 60.0294 29.0523 60.9323L29.5039 61.3591C29.8192 61.6504 30.1631 61.9553 30.5358 62.2744L31.1166 62.7637C31.3174 62.9304 31.5254 63.1007 31.7407 63.2747L31.9993 63.4826L31.9995 67.0002L32.0073 67.1256C32.069 67.6187 32.4897 68.0002 32.9995 68.0002C33.5518 68.0002 33.9995 67.5524 33.9995 67.0002V62.5156L33.3318 61.9872L32.5211 61.3293L32.0238 60.9133L31.5614 60.5159L31.1338 60.1372L30.7414 59.7776L30.3841 59.4375C30.2709 59.3274 30.1636 59.2206 30.0623 59.1171L29.7759 58.8168L29.5253 58.5368L29.3104 58.2774C29.1135 58.0285 28.9706 57.8111 28.8823 57.6266L28.4902 56.8006L27.7506 55.2149L26.5343 52.5563L24.5577 48.1567C23.8691 46.5774 23.8808 45.6329 24.2647 45.1736C24.4927 44.9008 24.9512 44.7863 25.0981 44.8397C25.1114 44.8446 25.1283 44.8542 25.1491 44.8689L25.2233 44.9286L25.3225 45.0211L25.6024 45.3124L26.0022 45.7596L26.5353 46.3792L27.8694 47.968L28.404 48.5981L28.8891 49.1599L29.347 49.6784L29.8001 50.1785L30.2709 50.6851C30.5177 50.9476 30.8727 51.0471 31.2015 50.9797C31.2259 50.9747 31.25 50.9688 31.2737 50.9621C31.6929 50.843 32 50.4574 32 50L32 32.5L32.0068 32.3555C32.0795 31.5949 32.7203 31 33.5 31C34.3284 31 35 31.6716 35 32.5V45L35.0067 45.1166C35.0645 45.614 35.4871 46 36 46C36.5523 46 37 45.5523 37 45V27.5L37.0068 27.3555C37.0795 26.5949 37.7203 26 38.5 26C39.3284 26 40 26.6716 40 27.5V45L40.0067 45.1166C40.0645 45.614 40.4871 46 41 46C41.5523 46 42 45.5523 42 45V30.4706L42.0068 30.3294C42.0792 29.5856 42.7178 29 43.5 29C44.331 29 45 29.6611 45 30.4706V45L45.0067 45.1166C45.0645 45.614 45.4871 46 46 46C46.5523 46 47 45.5523 47 45V34.4706L47.0068 34.3294C47.0792 33.5856 47.7178 33 48.5 33C49.331 33 50 33.6611 50 34.4706V53L49.9966 53.291C49.9537 55.1073 49.4912 56.4403 48.1654 58.4492C48.0218 58.6667 47.7754 58.9554 47.4287 59.3158L47.1069 59.6423L46.7363 60.0041L46.3662 60.3552L44.9985 61.6198L44.4886 62.1007L44 62.5858V67L44.0067 67.1166C44.0645 67.614 44.4871 68 45 68L45.1166 67.9933C45.6139 67.9355 46 67.5128 46 67V63.422L46.0993 63.3284L47.7354 61.813L48.1385 61.4304L48.5591 61.0193C49.1504 60.4298 49.5655 59.9585 49.8346 59.5508C51.4391 57.1198 52 55.3747 52 53V34.4706L51.9948 34.2799C51.8949 32.4495 50.366 31 48.5 31C47.9635 31 47.4548 31.1198 47 31.3341V30.4706L46.9948 30.2799C46.8949 28.4495 45.366 27 43.5 27C42.9617 27 42.4515 27.1206 41.9956 27.3362L41.9948 27.308Z" fill="#0D0C21"/>
</svg>

<svg xmlns="http://www.w3.org/2000/svg" width="80" height="80" fill="none"><path fill="#FFF7DB" fill-rule="evenodd" d="M56 77a1.001 1.001 0 0 1 0-2 1.001 1.001 0 0 1 0 2M8 65a1.001 1.001 0 0 1 0-2 1.001 1.001 0 0 1 0 2m68-7a1.001 1.001 0 0 1 0-2 1.001 1.001 0 0 1 0 2M65 10a1.001 1.001 0 0 1 0-2 1.001 1.001 0 0 1 0 2M24 4a1.001 1.001 0 0 1 0-2 1.001 1.001 0 0 1 0 2" clip-rule="evenodd"/><path fill="#FED980" d="M37.096 15.68c.417 1.14.034 2.476-.72 3.11-.321.269-.604.428-1.087.574l-.315.088-.178.043-.408.092-1.924.393-.241.052.135.07.245.133.468.264a1 1 0 1 1-1 1.732l-.213-.122-.446-.245-1.534-.802-.686-.365-.341-.186-.704-.392-.767-.437a1 1 0 1 1 1-1.732l.747.426.347.195.135.074a1 1 0 0 1 .345-.155l.547-.127 1.044-.232.77-.163 1.58-.321.447-.1.222-.056.173-.051.07-.025.117-.05.09-.052.076-.056c.12-.1.25-.555.128-.889-.206-.562-1.018-1.044-2.73-1.237l-3.383-.348-1.865-.184-2.079-.197-2.125-.188-.959-.076-.155.003-.117.011-.197.034-.15.035-.167.044-.285.088-.456.16-.555.213-.67.27-1.247.527-2.272.987-.108.037-.073.018-.077.011-.04.003h-.086l-.096-.01-.105-.017-.12-.03-.208-.063-.161-.058-.282-.11-.217-.092-.515-.23-.816-.38-2.336-1.119a1 1 0 1 1 .869-1.802l1.753.837.711.332.777.353.471.206.26.105 2.02-.877 1.138-.482.576-.236.659-.257.289-.105.388-.133.343-.103.207-.053.192-.043.18-.033.17-.023.164-.015.08-.004.234-.002.232.012 1.248.101 2.206.198 2.605.25 3.544.361.55.057c2.565.236 4.139 1.132 4.664 2.567M25.793 36.048a1 1 0 0 0 .896-1.785l-2.939-1.696-.104-.053a1 1 0 0 0-.896 1.785l2.939 1.697zm-5.308 2.2a1 1 0 0 1-1.262.419l-.104-.053-4.476-2.584c-.151-.087-.357-.29-.6-.584l-.219-.275-.115-.153-.242-.337-.255-.373-.266-.407-.275-.437-.14-.23-.283-.477-.287-.5-.287-.518-.143-.266-.285-.541-.14-.275-.277-.557-.268-.564-.258-.566-.245-.566q-.12-.282-.23-.562l-.124-.319-.958-.727-2.014-1.507-.365-.282-.207-.169-.09-.08-.088-.088-.032-.042-.074-.13-.088-.165a1 1 0 0 1 1.62-1.07l.061.063.28.223 2.936 2.205.318.249.165.138.128.123.032.04.043.072.118.216a32 32 0 0 0 2.74 5.575l.172.275.335.521q.249.376.475.694l.247.337.175.227.088.108c.004.008 0 .01-.034-.007l4.432 2.56a1 1 0 0 1 .366 1.366M23 40a1 1 0 1 0 0-2 1 1 0 0 0 0 2m31.419 2.661a1 1 0 0 1 .366-1.366l.212-.124.435-.264 1.792-1.134.329-.204.67-.407.723-.427.392-.228a1 1 0 0 1 1 1.732l-.742.434-.389.232a1 1 0 0 1-.024.097q-.164.546-.324 1.054l-.32.997-.648 1.945-.085.275-.063.22-.041.175-.006.032-.008.042-.015.126v.105l.01.093c.027.154.356.494.706.555.59.103 1.414-.36 2.437-1.745l2.276-3.15 1.79-2.508 1.073-1.523.734-1.057.166-.242q.24-.35.472-1.129l.102-.365.1-.407.099-.447.096-.488.095-.528.091-.568.09-.607.043-.318.085-.665.081-.704.015-.112.024-.105.023-.07.051-.106.047-.075.06-.08.116-.132.098-.1.182-.169.319-.27.666-.529 1.312-.999 1.364-1.023a1 1 0 0 1 1.2 1.6l-1.79 1.354-.937.726-.438.349-.362.302-.102.833-.049.374-.102.715c-.348 2.308-.775 3.87-1.322 4.751l-.08.122-.712 1.03-.821 1.172-1.438 2.025-2.3 3.196-.643.887c-1.487 2.103-3.049 3.018-4.555 2.755-1.194-.208-2.16-1.208-2.331-2.177-.08-.455-.068-.802.082-1.382l.096-.34.125-.4.587-1.76-.12.076-.469.285-.23.135a1 1 0 0 1-1.366-.367m9.908-22.834-2.543 1.122-.484.201-.196.071c-.18.058-.27.081-.432.064l-.107-.015a32 32 0 0 0-6.176-.408l-.322.01-.617.03-.57.041q-.135.011-.264.024l-.414.044-.283.039-.136.022c-.009 0-.008-.006.023-.026l-6.306 3.64a1 1 0 0 1-1.098-1.668l.098-.065 6.35-3.665c.198-.115.616-.211 1.19-.284l.404-.045.219-.02.466-.034.502-.026.533-.018.277-.006.572-.005.593.004.61.013.623.023.63.032.635.044.635.054.63.065q.47.053.928.119l.351.053.217-.09 2.764-1.217.27-.114.212-.085.137-.05.06-.02c.219-.07.31-.09.55-.044a1 1 0 0 1-.366 1.966c.068.013.11.025.138.034l.056.021c.019.006.034.002.083-.017zM49 28a1 1 0 1 0 0-2 1 1 0 0 0 0 2"/><path fill="#0D0C21" d="M41.995 27.308A3.5 3.5 0 0 0 35 27.5v1.837a3.5 3.5 0 0 0-5 3.163v14.885l-.608-.714-1.222-1.459-.621-.73-.376-.424-.215-.232-.192-.196-.088-.085-.166-.15a3 3 0 0 0-.226-.176l-.143-.091a2 2 0 0 0-.213-.109l-.148-.059c-.925-.336-2.274 0-3.052.93-.98 1.173-.968 2.984.11 5.322l1.49 3.322 1.447 3.176.765 1.648.536 1.132.07.139c.34.639.972 1.4 1.904 2.303l.452.427q.473.436 1.032.915l.58.49q.302.25.625.51l.258.209V67l.008.126A1 1 0 0 0 34 67v-4.484l-.667-.529-.81-.658-.498-.416-.463-.397-.427-.379-.393-.36-.357-.34q-.17-.164-.322-.32l-.286-.3-.25-.28-.216-.26a3.6 3.6 0 0 1-.428-.65l-.392-.826-.74-1.586-1.216-2.659-1.976-4.4c-.689-1.579-.677-2.523-.293-2.982.228-.273.686-.388.833-.334q.02.007.051.029l.074.06.1.092.28.291.4.448.532.62 1.334 1.588.535.63.485.562.458.518.453.5.47.507A1 1 0 0 0 32 50V32.5l.007-.145A1.5 1.5 0 0 1 35 32.5V45l.007.117A1 1 0 0 0 37 45V27.5l.007-.145A1.5 1.5 0 0 1 40 27.5V45l.007.117A1 1 0 0 0 42 45V30.47l.007-.14A1.49 1.49 0 0 1 43.5 29c.831 0 1.5.661 1.5 1.47V45l.007.117A1 1 0 0 0 47 45V34.47l.007-.14A1.49 1.49 0 0 1 48.5 33c.831 0 1.5.661 1.5 1.47V53l-.003.291c-.043 1.816-.506 3.15-1.832 5.158q-.216.326-.736.867l-.322.326-.37.362-.37.351-1.368 1.265-.51.48-.489.486V67l.007.117A1 1 0 0 0 45 68l.117-.007A1 1 0 0 0 46 67v-3.578l.1-.094 1.635-1.515.404-.383.42-.41c.591-.59 1.007-1.062 1.276-1.47C51.439 57.12 52 55.376 52 53V34.47l-.005-.19c-.1-1.83-1.629-3.28-3.495-3.28a3.5 3.5 0 0 0-1.5.334v-.863l-.005-.191c-.1-1.83-1.629-3.28-3.495-3.28a3.5 3.5 0 0 0-1.504.336z"/></svg>
